X:1075
T:Teddy Bears Picnic #2, The 
C:Joe Buchanan's Scottish Tome - Page 427.0
I:427 0
Z:Carl Allison
R:Two-step
L:1/8
M:6/8
K:C
E | Azc BcB | Azc Bzc | ABc Bzc | A3- A G |
c ze ded | cze dze | cde dze | c3- c g |
"D"azg "G"azg | "D"deg "G"e2 d | "C"dzc "G"dzc | "C"GAc A2 G |
(G2 c) (A2 c) | GAc A2 e | d6 |1 c2 edcB :|2 c3 c E2 |][
K:F]
[|T"F"C3 "C"A3 | "F"^G3 "C"A3 | "F"^G3 "C"A3 | "F"dzA "C"c3- | czG ^GzA |
dzA czA | dcA ^G2 A | czG B3 | BCD EDE |
C3 "C"B3 | ^F3 "C"G3 | "G"ezG "C"d3- | "G"dzd ^czd |
e3 d3 | c3 B3 | Azc c3- | "F"cC=D "C"EAG |
"F"C3 "C"A3 | "F"^G3 "C"A3 | "F"dzA "C"c3- | "F"czA "C"^G2 A |
"F"dzA "C"czA | "F"dcA "F"G2 F | "Bb     F     G"f6- | "Bb"f3 "C"f z "D"F |
fze fze | fef gfd | cz^B czd | czF G2 A |
B3 c2 d | A3 G3 | F3 C =B, C | F3 z z E2 |]

